svgs/sharp-solid/billboard.svg

<svg xmlns="http://www.w3.org/2000/svg" viewBox="0 0 640 512"><!--! Font Awesome Pro 6.6.0 by @fontawesome - https://fontawesome.com License - https://fontawesome.com/license (Commercial License) Copyright 2024 Fonticons, Inc. --><path d="M448 32l0-32L384 0l0 32L256 32l0-32L192 0l0 32L96 32 32 32l0 64 0 256L0 352l0 64 32 0 64 0 192 0 0 64 0 32 64 0 0-32 0-64 192 0 64 0 32 0 0-64-32 0 0-256 0-64-64 0-96 0zM352 352l-64 0L96 352 96 96l96 0 0 32-32 0 0 64 32 0 32 0 32 0 32 0 0-64-32 0 0-32 128 0 0 32-32 0 0 64 32 0 32 0 32 0 32 0 0-64-32 0 0-32 96 0 0 256-192 0z"/></svg>

<svg xmlns="http://www.w3.org/2000/svg" viewBox="0 0 640 512"><!--! Font Awesome Pro 6.4.0 by @fontawesome - https://fontawesome.com License - https://fontawesome.com/license (Commercial License) Copyright 2023 Fonticons, Inc. --><path d="M448 32V0H384V32H256V0H192V32H96 32V96 352H0v64H32 96 288v64 32h64V480 416H544h64 32V352H608V96 32H544 448zM352 352H288 96V96h96v32H160v64h32 32 32 32V128H256V96H384v32H352v64h32 32 32 32V128H448V96h96V352H352z"/></svg>
